icon-svg/phantom.svg

<svg xmlns="http://www.w3.org/2000/svg" fill="#44739e" viewBox="0 0 24 24"><path d="m10.6 19.343-4.268-.27a1.105 1.105 0 0 0 .766.4l3.342.268a24.8 24.8 0 0 0 3.133.054l2.231-.1a1.243 1.243 0 0 0 .929-.486l-3 .162c-.581.022-2.561.005-3.133-.028m9.754-9.993a.568.568 0 0 1-.32.466.54.54 0 0 1 .413.3l.438-.439Zm-.595-.215-.022.178.12-.014.169-.387-.012-.126-.113.032Zm.192.513c.21-.031.341-.324.292-.654a.85.85 0 0 0-.125-.342l.031.323-.218.5-.279.031a.335.335 0 0 0 .299.142m.52.895c-.048-.331-.259-.574-.468-.543a.29.29 0 0 0-.193.127h.191l.357.407.061.459a.8.8 0 0 0 .052-.45m-.194.266-.025-.188-.276-.315-.081.002.036.179.227.264zm-.502-2.358c-.21.031-.341.324-.293.655a.87.87 0 0 0 .116.327l.048-.388.178-.394.241-.069a.331.331 0 0 0-.29-.131m-.027-.181a.336.336 0 0 1 .2.034L20.174 8a1.292 1.292 0 0 0-.91-.423l.42.712a.35.35 0 0 1 .064-.019m-.548 3.256a.357.357 0 0 1-.222-.044l-.219.337a1.3 1.3 0 0 0 .958.443l-.41-.772a.31.31 0 0 1-.107.036m-.454-3.109a.34.34 0 0 1 .055 0l.205-.8a1.286 1.286 0 0 0-.74.654l.281.256a.36.36 0 0 1 .199-.11m1.46 2.962a.32.32 0 0 1-.12-.006l-.174.862a1.246 1.246 0 0 0 .754-.62l-.321-.291a.36.36 0 0 1-.139.055m-.448-1.16a.82.82 0 0 0-.047.436c.048.33.258.573.468.542a.3.3 0 0 0 .208-.15l-.273-.133-.282-.33zm.491-1.593.141-.364-.118-.139-.195.268a.79.79 0 0 1 .172.235m.201 2.595.267.241.065-.172-.217-.311a.72.72 0 0 1-.115.242m-.092-2.244a1.2 1.2 0 0 1 .013.2l.56.348a3.28 3.28 0 0 0-.444-1.133l-.164.425a1.2 1.2 0 0 1 .035.16m-1.33.455-.025-.188-.276-.316-.081.002.036.179.227.265zm-.435 1.387a1.27 1.27 0 0 1-.011-.245l-.573-.357a3.33 3.33 0 0 0 .439 1.2 2.7 2.7 0 0 1 .222-.315 1.2 1.2 0 0 1-.077-.283m.285.381a.338.338 0 0 0 .3.141c.21-.031.341-.325.292-.655a.82.82 0 0 0-.151-.377l.035.362-.218.5zm-.42-2.56L18.2 8.4c-.02.043-.039.088-.056.134l.244.286a.8.8 0 0 1 .07-.18m2.063 1.634a1.22 1.22 0 0 1 .066.252 1.26 1.26 0 0 1 .009.266l.265.381a3.25 3.25 0 0 0 .116-1.356ZM18.365 9.27a1.17 1.17 0 0 1-.009-.27l-.268-.313a3.23 3.23 0 0 0-.113 1.275l.452-.45a1.2 1.2 0 0 1-.062-.242m1.235 1.402c-.059-.4.085-.759.325-.84-.253-.008-.494-.31-.553-.709a.866.866 0 0 1 .207-.771l-.435-.738-.212.828a.858.858 0 0 1 .429.682c.059.4-.085.759-.325.839.253.009.494.31.553.71a.906.906 0 0 1-.172.738l.39.735.165-.821a.913.913 0 0 1-.372-.653m-.359-1.531c-.049-.33-.259-.573-.469-.542a.3.3 0 0 0-.208.151l.187-.005.358.407.062.47a.78.78 0 0 0 .07-.481m-.493 2.111c-.081.1-.162.216-.2.274a1.8 1.8 0 0 0 .124.154l.186-.286a.78.78 0 0 1-.11-.142M18.5 9.669l-.412.411.519.323a.544.544 0 0 1 .311-.423.544.544 0 0 1-.418-.311m.5.479c-.209.03-.34.324-.292.654a.88.88 0 0 0 .1.3l.044-.354.177-.394.261-.075a.332.332 0 0 0-.29-.131m.14-.478-.275-.134-.282-.33-.071-.349a.84.84 0 0 0-.032.4c.049.33.259.574.469.543a.292.292 0 0 0 .191-.13m.078.816-.112.032-.143.317-.022.177.12-.013.169-.387zm-.108-4.78a.4.4 0 0 1-.313-.183l-.068-.1a1.818 1.818 0 0 0-1.289-.645.53.53 0 0 0-.149.016h-.024a.157.157 0 0 0-.116.075c-.018.045-.035.184.218.514l.01.013.058.165a.6.6 0 0 1-.1.582l-.008.01-.01.007c-.96.7-1.436 2.505-1.158 4.392.34 2.308 1.818 4.01 3.293 3.793 1.549-.229 2.546-2.2 2.223-4.39-.285-1.906-1.456-3.846-2.567-4.249m1.874 5.9a1.545 1.545 0 0 1-1.138 1 1.2 1.2 0 0 1-.17.013c-.911 0-1.781-1.057-1.988-2.463-.213-1.456.357-2.756 1.278-2.956l.166-.024a1.58 1.58 0 0 1 1.29.633 3.584 3.584 0 0 1 .772 1.748l.018.117a3.6 3.6 0 0 1-.228 1.926Zm-7.58-.142a3.489 5.128 0 0 1-3.489 5.128 3.489 5.128 0 0 1-3.489-5.128 3.489 5.128 0 0 1 3.489-5.128 3.489 5.128 0 0 1 3.489 5.128m-1.573-5.688a3.207 3.207 0 0 0-1.687-.484 3.43 3.43 0 0 0-.981.147l-2.706.753a5.621 5.621 0 0 0-3.885 6.427c.162 1.088.72 3.747 2.407 4.941a3.508 3.508 0 0 0 2.8.523l2.529-.448a4.556 4.556 0 0 0 2.965-1.7 6.7 6.7 0 0 0 1.3-5.254c-.45-2.357-1.422-4.1-2.742-4.905m.807 9.527a3.355 3.355 0 0 1-2.723 1.623A3.354 3.354 0 0 1 7.193 15.3a6.81 6.81 0 0 1-1.1-3.839 6.81 6.81 0 0 1 1.1-3.839A3.352 3.352 0 0 1 9.915 6a3.354 3.354 0 0 1 2.723 1.622 6.81 6.81 0 0 1 1.1 3.839 6.81 6.81 0 0 1-1.1 3.839zM14.117 3.17a5.81 5.81 0 0 0-1.778.14l-.038.009q-.745.174-1.476.405L6.2 5.181a5.11 5.11 0 0 0-1.738.952c-4.89 5.169-1.35 11.508.905 12.387a2.37 2.37 0 0 0 .9.223l5.2.229q1.677.073 3.356-.005l1.51-.071.63-.03c7.017-2.881 7.268-14.903-2.846-15.696m-.687 12.9a4.777 4.777 0 0 1-3.105 1.772l-2.511.444a4.56 4.56 0 0 1-.884.089 3.5 3.5 0 0 1-2.071-.646c-1.753-1.24-2.327-3.966-2.493-5.08a6.35 6.35 0 0 1 .758-4.142A5.42 5.42 0 0 1 6.4 5.991l2.7-.752a3.428 3.428 0 0 1 2.834.359c1.372.836 2.379 2.63 2.833 5.052v.007a6.9 6.9 0 0 1-1.337 5.414zm6.05-1.519a2.1 2.1 0 0 1-.282.02c-1.49 0-2.911-1.71-3.247-3.989a7.01 7.01 0 0 1 .111-2.692A3.306 3.306 0 0 1 17.181 6a.392.392 0 0 0 .06-.369l-.048-.131c-.231-.3-.307-.538-.232-.711a.354.354 0 0 1 .274-.2 1.826 1.826 0 0 1 1.653.694l.012.017.073.113a.194.194 0 0 0 .16.088h.032A3.7 3.7 0 0 1 20.9 7.189a7.81 7.81 0 0 1 .983 2.737 5.088 5.088 0 0 1-.461 3.12 2.724 2.724 0 0 1-1.942 1.506z"/></svg>

<?xml version="1.0" encoding="UTF-8"?>
<svg width="24px" fill="#44739e" height="24px" viewBox="0 0 24 24" version="1.1" xmlns="http://www.w3.org/2000/svg" xmlns:xlink="http://www.w3.org/1999/xlink">
            <path d="m 10.6,19.343 -4.268,-0.27 a 1.105,1.105 0 0 0 0.766,0.4 l 3.342,0.268 a 24.816,24.816 0 0 0 3.133,0.054 l 2.231,-0.1 a 1.243,1.243 0 0 0 0.929,-0.486 l -3,0.162 C 13.152,19.393 11.172,19.376 10.6,19.343 Z M 20.354,9.35 a 0.568,0.568 0 0 1 -0.32,0.466 0.54,0.54 0 0 1 0.413,0.3 L 20.885,9.677 Z M 19.759,9.135 19.737,9.313 19.857,9.299 20.026,8.912 20.014,8.786 19.901,8.818 Z m 0.192,0.513 c 0.21,-0.031 0.341,-0.324 0.292,-0.654 A 0.854,0.854 0 0 0 20.118,8.652 l 0.031,0.323 -0.218,0.5 -0.279,0.031 a 0.335,0.335 0 0 0 0.299,0.142 z m 0.52,0.895 C 20.423,10.212 20.212,9.969 20.003,10 a 0.291,0.291 0 0 0 -0.193,0.127 h 0.191 l 0.357,0.407 0.061,0.459 a 0.8,0.8 0 0 0 0.052,-0.45 z m -0.194,0.266 -0.025,-0.188 -0.276,-0.315 -0.081,0.002 0.036,0.179 0.227,0.264 z M 19.775,8.451 c -0.21,0.031 -0.341,0.324 -0.293,0.655 a 0.869,0.869 0 0 0 0.116,0.327 L 19.646,9.045 19.824,8.651 20.065,8.582 A 0.331,0.331 0 0 0 19.775,8.451 Z M 19.748,8.27 a 0.336,0.336 0 0 1 0.2,0.034 L 20.174,8 a 1.292,1.292 0 0 0 -0.91,-0.423 l 0.42,0.712 A 0.353,0.353 0 0 1 19.748,8.27 Z M 19.2,11.526 a 0.357,0.357 0 0 1 -0.222,-0.044 l -0.219,0.337 a 1.3,1.3 0 0 0 0.958,0.443 L 19.307,11.49 A 0.308,0.308 0 0 1 19.2,11.526 Z M 18.746,8.417 a 0.338,0.338 0 0 1 0.055,0 l 0.205,-0.8 a 1.286,1.286 0 0 0 -0.74,0.654 l 0.281,0.256 a 0.359,0.359 0 0 1 0.199,-0.11 z m 1.46,2.962 a 0.324,0.324 0 0 1 -0.12,-0.006 l -0.174,0.862 a 1.246,1.246 0 0 0 0.754,-0.62 l -0.321,-0.291 a 0.356,0.356 0 0 1 -0.139,0.055 z m -0.448,-1.16 a 0.818,0.818 0 0 0 -0.047,0.436 c 0.048,0.33 0.258,0.573 0.468,0.542 a 0.3,0.3 0 0 0 0.208,-0.15 l -0.273,-0.133 -0.282,-0.33 z M 20.249,8.626 20.39,8.262 20.272,8.123 20.077,8.391 a 0.79,0.79 0 0 1 0.172,0.235 z m 0.201,2.595 0.267,0.241 0.065,-0.172 -0.217,-0.311 A 0.715,0.715 0 0 1 20.45,11.221 Z M 20.358,8.977 a 1.2,1.2 0 0 1 0.013,0.2 l 0.56,0.348 A 3.283,3.283 0 0 0 20.487,8.392 l -0.164,0.425 a 1.189,1.189 0 0 1 0.035,0.16 z m -1.33,0.455 -0.025,-0.188 -0.276,-0.316 -0.081,0.002 0.036,0.179 0.227,0.265 z m -0.435,1.387 a 1.275,1.275 0 0 1 -0.011,-0.245 l -0.573,-0.357 a 3.326,3.326 0 0 0 0.439,1.2 2.681,2.681 0 0 1 0.222,-0.315 1.2,1.2 0 0 1 -0.077,-0.283 z m 0.285,0.381 a 0.338,0.338 0 0 0 0.3,0.141 c 0.21,-0.031 0.341,-0.325 0.292,-0.655 a 0.819,0.819 0 0 0 -0.151,-0.377 l 0.035,0.362 -0.218,0.5 z M 18.458,8.64 18.2,8.4 c -0.02,0.043 -0.039,0.088 -0.056,0.134 l 0.244,0.286 a 0.786,0.786 0 0 1 0.07,-0.18 z m 2.063,1.634 a 1.224,1.224 0 0 1 0.066,0.252 1.26,1.26 0 0 1 0.009,0.266 l 0.265,0.381 A 3.246,3.246 0 0 0 20.977,9.817 Z M 18.365,9.27 A 1.169,1.169 0 0 1 18.356,9 L 18.088,8.687 a 3.231,3.231 0 0 0 -0.113,1.275 l 0.452,-0.45 A 1.218,1.218 0 0 1 18.365,9.27 Z m 1.235,1.402 c -0.059,-0.4 0.085,-0.759 0.325,-0.84 C 19.672,9.824 19.431,9.522 19.372,9.123 A 0.866,0.866 0 0 1 19.579,8.352 L 19.144,7.614 18.932,8.442 a 0.858,0.858 0 0 1 0.429,0.682 c 0.059,0.4 -0.085,0.759 -0.325,0.839 0.253,0.009 0.494,0.31 0.553,0.71 a 0.906,0.906 0 0 1 -0.172,0.738 l 0.39,0.735 0.165,-0.821 A 0.913,0.913 0 0 1 19.6,10.672 Z M 19.241,9.141 C 19.192,8.811 18.982,8.568 18.772,8.599 A 0.3,0.3 0 0 0 18.564,8.75 l 0.187,-0.005 0.358,0.407 0.062,0.47 a 0.779,0.779 0 0 0 0.07,-0.481 z m -0.493,2.111 c -0.081,0.1 -0.162,0.216 -0.2,0.274 a 1.778,1.778 0 0 0 0.124,0.154 l 0.186,-0.286 a 0.775,0.775 0 0 1 -0.11,-0.142 z M 18.5,9.669 18.088,10.08 18.607,10.403 A 0.544,0.544 0 0 1 18.918,9.98 0.544,0.544 0 0 1 18.5,9.669 Z m 0.5,0.479 c -0.209,0.03 -0.34,0.324 -0.292,0.654 a 0.881,0.881 0 0 0 0.1,0.3 l 0.044,-0.354 0.177,-0.394 0.261,-0.075 A 0.332,0.332 0 0 0 19,10.148 Z M 19.14,9.67 18.865,9.536 18.583,9.206 18.512,8.857 a 0.839,0.839 0 0 0 -0.032,0.4 c 0.049,0.33 0.259,0.574 0.469,0.543 A 0.292,0.292 0 0 0 19.14,9.67 Z m 0.078,0.816 -0.112,0.032 -0.143,0.317 -0.022,0.177 0.12,-0.013 0.169,-0.387 z M 19.11,5.706 A 0.4,0.4 0 0 1 18.797,5.523 l -0.068,-0.1 A 1.818,1.818 0 0 0 17.44,4.778 0.532,0.532 0 0 0 17.291,4.794 h -0.012 -0.012 a 0.157,0.157 0 0 0 -0.116,0.075 c -0.018,0.045 -0.035,0.184 0.218,0.514 l 0.01,0.013 0.058,0.165 a 0.6,0.6 0 0 1 -0.1,0.582 l -0.008,0.01 -0.01,0.007 c -0.96,0.7 -1.436,2.505 -1.158,4.392 0.34,2.308 1.818,4.01 3.293,3.793 1.549,-0.229 2.546,-2.2 2.223,-4.39 C 21.392,8.049 20.221,6.109 19.11,5.706 Z m 1.874,5.9 a 1.545,1.545 0 0 1 -1.138,1 1.228,1.228 0 0 1 -0.17,0.013 c -0.911,0 -1.781,-1.057 -1.988,-2.463 C 17.475,8.7 18.045,7.4 18.966,7.2 l 0.166,-0.024 a 1.58,1.58 0 0 1 1.29,0.633 3.584,3.584 0 0 1 0.772,1.748 l 0.018,0.117 A 3.6,3.6 0 0 1 20.984,11.6 Z m -7.58,-0.142 A 3.4890001,5.1279998 0 0 1 9.915,16.592 3.4890001,5.1279998 0 0 1 6.4259999,11.464 3.4890001,5.1279998 0 0 1 9.915,6.336 3.4890001,5.1279998 0 0 1 13.404,11.464 Z M 11.831,5.776 A 3.207,3.207 0 0 0 10.144,5.292 3.433,3.433 0 0 0 9.163,5.439 L 6.457,6.192 a 5.621,5.621 0 0 0 -3.885,6.427 c 0.162,1.088 0.72,3.747 2.407,4.941 a 3.508,3.508 0 0 0 2.8,0.523 l 2.529,-0.448 a 4.556,4.556 0 0 0 2.965,-1.7 6.7,6.7 0 0 0 1.3,-5.254 c -0.45,-2.357 -1.422,-4.1 -2.742,-4.905 z m 0.807,9.527 A 3.355,3.355 0 0 1 9.915,16.926 3.354,3.354 0 0 1 7.193,15.3 6.808,6.808 0 0 1 6.093,11.461 6.808,6.808 0 0 1 7.193,7.622 3.352,3.352 0 0 1 9.915,6 a 3.354,3.354 0 0 1 2.723,1.622 6.808,6.808 0 0 1 1.1,3.839 6.808,6.808 0 0 1 -1.1,3.839 z M 14.117,3.17 A 5.812,5.812 0 0 0 12.339,3.31 L 12.301,3.319 Q 11.556,3.493 10.825,3.724 L 6.2,5.181 A 5.109,5.109 0 0 0 4.462,6.133 v 0 c -4.89,5.169 -1.35,11.508 0.905,12.387 a 2.368,2.368 0 0 0 0.9,0.223 l 5.2,0.229 q 1.677,0.073 3.356,-0.005 l 1.51,-0.071 0.63,-0.03 C 23.98,15.985 24.231,3.963 14.117,3.17 Z m -0.687,12.9 a 4.777,4.777 0 0 1 -3.105,1.772 L 7.814,18.286 A 4.562,4.562 0 0 1 6.93,18.375 3.5,3.5 0 0 1 4.859,17.729 C 3.106,16.489 2.532,13.763 2.366,12.649 A 6.35,6.35 0 0 1 3.124,8.507 5.419,5.419 0 0 1 6.4,5.991 L 9.1,5.239 a 3.428,3.428 0 0 1 2.834,0.359 c 1.372,0.836 2.379,2.63 2.833,5.052 v 0.007 a 6.9,6.9 0 0 1 -1.337,5.414 z m 6.05,-1.519 a 2.057,2.057 0 0 1 -0.282,0.02 c -1.49,0 -2.911,-1.71 -3.247,-3.989 A 7.007,7.007 0 0 1 16.062,7.89 3.306,3.306 0 0 1 17.181,6 0.392,0.392 0 0 0 17.241,5.631 L 17.193,5.5 C 16.962,5.2 16.886,4.962 16.961,4.789 a 0.354,0.354 0 0 1 0.274,-0.2 1.826,1.826 0 0 1 1.653,0.694 L 18.9,5.3 18.973,5.413 a 0.194,0.194 0 0 0 0.16,0.088 h 0.017 0.015 a 3.7,3.7 0 0 1 1.735,1.688 7.809,7.809 0 0 1 0.983,2.737 5.088,5.088 0 0 1 -0.461,3.12 2.724,2.724 0 0 1 -1.942,1.506 z"/>

</svg>
